X: 1
T: Broken Bow, The
M: 4/4
L: 1/8
R: reel
K: Bmin
|:dBcA BB, B,/B,/B, | CA, A,/A,/A, B,DFA | B3 c dedc | BAFE F3 ^A |
B2 B/B/B AFEF | E/E/E GE B,EDF | E/E/E EE GEFD | B,2 B,A, B,DFA :|
|: B/B/B ef B/B/B fd | B3 A2 AFD | E/E/E GB AF2A-| AFDB FDAF | 
E/E/E ED E3 F | AFDF EGBd | cAce dfac |B/B/B BA B4 :|
